X:11004
T:Kerfunken, The
T:Kerfunten Jig
R:Jig
C:Trad.
O:Ireland
M:6/8
L:1/8
Q:1/8=200
K:Dmaj
"Bm"F3 FED|FGA Bcd|"D"A2 B BAF|"Em"E3 EDE|
|"Bm"F3 FED|FGA Bcd|"D"A2 B BAF|1 "Bm"EFE D2 E:|2 "D"EFE DFA|
|:"Bm"d3 def|B3 BAB|d3 def|fed efe|
|"Bm"d3 def|B3 BAB|"D"A2 d dAF|1"D"EFE DFA:|2 "Bm"EFE D2 E|]

